X: 1955
T: Victor Cherry's Jig
B: australian traditional tunes wiki
M:6/8
L:1/8
R: Jig
Q: 3/8=100
K:D
V:1 
|:"D"DFA BAA|dAA "Bm"BAA|"D"DFA def|"Em"edB "Bm"B2A|
"D"DFA BAA|dAA "Bm"BAA|"D"DFA def|"G"edd "D"d2A:|
|:"Bm"FBB FAA|FBB "D"AFD|"Bm"FBB FAA|"Em"EDE "G"GFG|
"Bm"FBB FAA|FBB "D"AFD|"A"A,A,A, "D"AFD|1"A"A,A,A, A2A:|2"A"A,A,A,A3||
% abcbook-tune_id 6342d5be95368b7261612c94


% abcbook-boost 0
% abcbook-tablature 
% abcbook-transpose 
% abcbook-lastupdated 1665324490217
% abcbook-soundfonts 
% abcbook-repeats 1
% NFF Book 2009

